48x48/apps/tupi.svg

<svg viewBox="0 0 48 48"><defs><linearGradient id="linearGradient3764" x1="1" x2="47" gradientUnits="userSpaceOnUse" gradientTransform="matrix(0,-1,1,0,-1.5e-6,47.999998)"><stop stop-color="#c8cdd4" stop-opacity="1"/><stop offset="1" stop-color="#d3d7dc" stop-opacity="1"/></linearGradient><clipPath id="clipPath-499420196"><g transform="translate(0,-1004.3622)"><path d="m -24 13 c 0 1.105 -0.672 2 -1.5 2 -0.828 0 -1.5 -0.895 -1.5 -2 0 -1.105 0.672 -2 1.5 -2 0.828 0 1.5 0.895 1.5 2 z" transform="matrix(15.333333,0,0,11.5,414.99999,878.8622)" fill="#1890d0"/></g></clipPath><clipPath id="clipPath-505100628"><g transform="translate(0,-1004.3622)"><path d="m -24 13 c 0 1.105 -0.672 2 -1.5 2 -0.828 0 -1.5 -0.895 -1.5 -2 0 -1.105 0.672 -2 1.5 -2 0.828 0 1.5 0.895 1.5 2 z" transform="matrix(15.333333,0,0,11.5,414.99999,878.8622)" fill="#1890d0"/></g></clipPath></defs><g><path d="m 36.31 5 c 5.859 4.062 9.688 10.831 9.688 18.5 c 0 12.426 -10.07 22.5 -22.5 22.5 c -7.669 0 -14.438 -3.828 -18.5 -9.688 c 1.037 1.822 2.306 3.499 3.781 4.969 c 4.085 3.712 9.514 5.969 15.469 5.969 c 12.703 0 23 -10.298 23 -23 c 0 -5.954 -2.256 -11.384 -5.969 -15.469 c -1.469 -1.475 -3.147 -2.744 -4.969 -3.781 z m 4.969 3.781 c 3.854 4.113 6.219 9.637 6.219 15.719 c 0 12.703 -10.297 23 -23 23 c -6.081 0 -11.606 -2.364 -15.719 -6.219 c 4.16 4.144 9.883 6.719 16.219 6.719 c 12.703 0 23 -10.298 23 -23 c 0 -6.335 -2.575 -12.06 -6.719 -16.219 z" opacity="0.05"/><path d="m 41.28 8.781 c 3.712 4.085 5.969 9.514 5.969 15.469 c 0 12.703 -10.297 23 -23 23 c -5.954 0 -11.384 -2.256 -15.469 -5.969 c 4.113 3.854 9.637 6.219 15.719 6.219 c 12.703 0 23 -10.298 23 -23 c 0 -6.081 -2.364 -11.606 -6.219 -15.719 z" opacity="0.1"/><path d="m 31.25 2.375 c 8.615 3.154 14.75 11.417 14.75 21.13 c 0 12.426 -10.07 22.5 -22.5 22.5 c -9.708 0 -17.971 -6.135 -21.12 -14.75 a 23 23 0 0 0 44.875 -7 a 23 23 0 0 0 -16 -21.875 z" opacity="0.2"/></g><g><path d="m 24 1 c 12.703 0 23 10.297 23 23 c 0 12.703 -10.297 23 -23 23 -12.703 0 -23 -10.297 -23 -23 0 -12.703 10.297 -23 23 -23 z" fill="url(#linearGradient3764)" fill-opacity="1"/></g><g/><g><g clip-path="url(#clipPath-499420196)"><g transform="translate(1,1)"><g opacity="0.1"><!-- color: #d3d7dc --><g><path d="m 9.803 3.153 c -0.535 -0.398 -3.888 3.202 -4.04 3.13 c -0.25 -0.147 0.412 -2.681 0.145 -2.804 c -0.505 -0.245 -2.832 4.442 -3.441 6.123 l 0.484 0.423 c 0.822 -2.03 5.07 0.399 5.28 0.135 c 0.124 -0.208 -2.357 -1.767 -2.247 -1.994 c 0.175 -0.355 4.319 1.28 4.467 1.031 c 0.116 -0.202 -1.897 -1.711 -1.874 -1.92 c 0.098 -0.233 2.948 -1.325 2.884 -1.608 c -0.353 -0.859 -4.867 1.41 -5.076 1.151 c -0.121 -0.225 3.776 -3.373 3.414 -3.667 m 0.004 0" transform="matrix(3.233046,0,0,3.269549,2.47496,2.248699)" stroke-opacity="1" fill="#000" fill-rule="nonzero" stroke="#283d70" stroke-linejoin="miter" fill-opacity="1" stroke-linecap="butt" stroke-width="0.282" stroke-miterlimit="4"/><path d="m 19.438 24.813 c -6.687 3.179 -9.877 9.906 -9.877 9.906 c 1.995 -3.264 3.677 -6.511 9.877 -9.906 m 0 0" transform="matrix(0.912437,0,0,0.922739,2.47496,2.248699)" stroke-opacity="1" fill="#000" fill-rule="nonzero" stroke="#283d70" stroke-linejoin="miter" fill-opacity="1" stroke-linecap="butt" stroke-width="1" stroke-miterlimit="4"/></g></g></g></g></g><g><g clip-path="url(#clipPath-505100628)"><!-- color: #d3d7dc --><g><path d="m 9.803 3.153 c -0.535 -0.398 -3.888 3.202 -4.04 3.13 c -0.25 -0.147 0.412 -2.681 0.145 -2.804 c -0.505 -0.245 -2.832 4.442 -3.441 6.123 l 0.484 0.423 c 0.822 -2.03 5.07 0.399 5.28 0.135 c 0.124 -0.208 -2.357 -1.767 -2.247 -1.994 c 0.175 -0.355 4.319 1.28 4.467 1.031 c 0.116 -0.202 -1.897 -1.711 -1.874 -1.92 c 0.098 -0.233 2.948 -1.325 2.884 -1.608 c -0.353 -0.859 -4.867 1.41 -5.076 1.151 c -0.121 -0.225 3.776 -3.373 3.414 -3.667 m 0.004 0" transform="matrix(3.233046,0,0,3.269549,2.47496,2.248699)" stroke-opacity="1" fill="#209cff" fill-rule="nonzero" stroke="#283d70" stroke-linejoin="miter" fill-opacity="1" stroke-linecap="butt" stroke-width="0.282" stroke-miterlimit="4"/><path d="m 19.438 24.813 c -6.687 3.179 -9.877 9.906 -9.877 9.906 c 1.995 -3.264 3.677 -6.511 9.877 -9.906 m 0 0" transform="matrix(0.912437,0,0,0.922739,2.47496,2.248699)" stroke-opacity="1" fill="#209cff" fill-rule="nonzero" stroke="#283d70" stroke-linejoin="miter" fill-opacity="1" stroke-linecap="butt" stroke-width="1" stroke-miterlimit="4"/></g></g></g><g><path d="m 40.03 7.531 c 3.712 4.084 5.969 9.514 5.969 15.469 0 12.703 -10.297 23 -23 23 c -5.954 0 -11.384 -2.256 -15.469 -5.969 4.178 4.291 10.01 6.969 16.469 6.969 c 12.703 0 23 -10.298 23 -23 0 -6.462 -2.677 -12.291 -6.969 -16.469 z" opacity="0.1"/></g></svg>

<?xml version="1.0" encoding="UTF-8" standalone="no"?>
<svg
   xmlns:dc="http://purl.org/dc/elements/1.1/"
   xmlns:cc="http://creativecommons.org/ns#"
   xmlns:rdf="http://www.w3.org/1999/02/22-rdf-syntax-ns#"
   xmlns:svg="http://www.w3.org/2000/svg"
   xmlns="http://www.w3.org/2000/svg"
   xmlns:sodipodi="http://sodipodi.sourceforge.net/DTD/sodipodi-0.dtd"
   xmlns:inkscape="http://www.inkscape.org/namespaces/inkscape"
   viewBox="0 0 48 48"
   id="svg2"
   version="1.1"
   inkscape:version="0.48.4 r9939"
   width="100%"
   height="100%"
   sodipodi:docname="tupi.svg">
  <metadata
     id="metadata65">
    <rdf:RDF>
      <cc:Work
         rdf:about="">
        <dc:format>image/svg+xml</dc:format>
        <dc:type
           rdf:resource="http://purl.org/dc/dcmitype/StillImage" />
      </cc:Work>
    </rdf:RDF>
  </metadata>
  <sodipodi:namedview
     pagecolor="#ffffff"
     bordercolor="#666666"
     borderopacity="1"
     objecttolerance="10"
     gridtolerance="10"
     guidetolerance="10"
     inkscape:pageopacity="0"
     inkscape:pageshadow="2"
     inkscape:window-width="1375"
     inkscape:window-height="876"
     id="namedview63"
     showgrid="false"
     inkscape:zoom="4.9166667"
     inkscape:cx="-12"
     inkscape:cy="24"
     inkscape:window-x="65"
     inkscape:window-y="24"
     inkscape:window-maximized="1"
     inkscape:current-layer="svg2" />
  <defs
     id="defs4">
    <linearGradient
       id="linearGradient3764"
       x1="1"
       x2="47"
       gradientUnits="userSpaceOnUse"
       gradientTransform="matrix(0,-1,1,0,-1.5e-6,47.999998)">
      <stop
         stop-color="#c8cdd4"
         stop-opacity="1"
         id="stop7" />
      <stop
         offset="1"
         stop-color="#d3d7dc"
         stop-opacity="1"
         id="stop9" />
    </linearGradient>
    <clipPath
       id="clipPath-499420196">
      <g
         transform="translate(0,-1004.3622)"
         id="g12">
        <path
           d="m -24 13 c 0 1.105 -0.672 2 -1.5 2 -0.828 0 -1.5 -0.895 -1.5 -2 0 -1.105 0.672 -2 1.5 -2 0.828 0 1.5 0.895 1.5 2 z"
           transform="matrix(15.333333,0,0,11.5,414.99999,878.8622)"
           fill="#1890d0"
           id="path14" />
      </g>
    </clipPath>
    <clipPath
       id="clipPath-505100628">
      <g
         transform="translate(0,-1004.3622)"
         id="g17">
        <path
           d="m -24 13 c 0 1.105 -0.672 2 -1.5 2 -0.828 0 -1.5 -0.895 -1.5 -2 0 -1.105 0.672 -2 1.5 -2 0.828 0 1.5 0.895 1.5 2 z"
           transform="matrix(15.333333,0,0,11.5,414.99999,878.8622)"
           fill="#1890d0"
           id="path19" />
      </g>
    </clipPath>
    <linearGradient
       id="linearGradient3764-0"
       x1="1"
       x2="47"
       gradientUnits="userSpaceOnUse"
       gradientTransform="matrix(0,-1,1,0,-1.5e-6,47.999998)">
      <stop
         stop-color="#b5945b"
         stop-opacity="1"
         id="stop7-0" />
      <stop
         offset="1"
         stop-color="#bb9e69"
         stop-opacity="1"
         id="stop9-3" />
    </linearGradient>
    <clipPath
       id="clipPath-899834956">
      <g
         transform="translate(0,-1004.3622)"
         id="g12-7">
        <path
           d="m -24 13 c 0 1.105 -0.672 2 -1.5 2 -0.828 0 -1.5 -0.895 -1.5 -2 0 -1.105 0.672 -2 1.5 -2 0.828 0 1.5 0.895 1.5 2 z"
           transform="matrix(15.333333,0,0,11.5,414.99999,878.8622)"
           fill="#1890d0"
           id="path14-3" />
      </g>
    </clipPath>
    <clipPath
       id="clipPath-909443126">
      <g
         transform="translate(0,-1004.3622)"
         id="g17-7">
        <path
           d="m -24 13 c 0 1.105 -0.672 2 -1.5 2 -0.828 0 -1.5 -0.895 -1.5 -2 0 -1.105 0.672 -2 1.5 -2 0.828 0 1.5 0.895 1.5 2 z"
           transform="matrix(15.333333,0,0,11.5,414.99999,878.8622)"
           fill="#1890d0"
           id="path19-5" />
      </g>
    </clipPath>
    <clipPath
       id="clipPath-909443126-7">
      <g
         transform="translate(0,-1004.3622)"
         id="g17-2">
        <path
           style="fill:#1890d0"
           inkscape:connector-curvature="0"
           d="m -24,13 c 0,1.105 -0.672,2 -1.5,2 -0.828,0 -1.5,-0.895 -1.5,-2 0,-1.105 0.672,-2 1.5,-2 0.828,0 1.5,0.895 1.5,2 z"
           transform="matrix(15.333333,0,0,11.5,414.99999,878.8622)"
           id="path19-3" />
      </g>
    </clipPath>
    <linearGradient
       id="linearGradient3759">
      <stop
         id="stop3761"
         offset="0"
         style="stop-color:#a75e15;stop-opacity:1;" />
      <stop
         id="stop3763"
         offset="1"
         style="stop-color:#ffffff;stop-opacity:0;" />
    </linearGradient>
    <linearGradient
       id="linearGradient3777">
      <stop
         id="stop3779"
         offset="0"
         style="stop-color:#e0dd00;stop-opacity:1;" />
      <stop
         id="stop3781"
         offset="1"
         style="stop-color:#000000;stop-opacity:0;" />
    </linearGradient>
  </defs>
  <g
     id="g33" />
  <g
     id="g3089">
    <g
       inkscape:label="shadows"
       id="layer2">
      <rect
         ry="13.03658"
         rx="13.03658"
         y="1"
         x="1"
         height="46"
         width="46"
         id="rect3007"
         style="opacity:0.1;fill:#000000;fill-opacity:1;fill-rule:nonzero;stroke:none" />
      <rect
         style="opacity:0.1;fill:#000000;fill-opacity:1;fill-rule:nonzero;stroke:none"
         id="rect3011"
         width="47"
         height="47"
         x="0.5"
         y="0.5"
         rx="13.319984"
         ry="13.319984" />
      <rect
         style="opacity:0.1;fill:#000000;fill-opacity:1;fill-rule:nonzero;stroke:none"
         id="rect3013"
         width="46.5"
         height="46.5"
         x="0.75"
         y="0.75"
         rx="13.178282"
         ry="13.178282" />
    </g>
    <g
       style="display:inline"
       inkscape:label="background-color"
       id="layer1">
      <rect
         transform="matrix(0,-1,1,0,0,0)"
         ry="12.753176"
         rx="12.753176"
         y="1.5"
         x="-46.5"
         height="45"
         width="45"
         id="rect2988"
         style="fill:#c8cdd4;fill-opacity:1;fill-rule:nonzero;stroke:none" />
    </g>
  </g>
  <g
     id="g3865"
     transform="translate(-0.99160884,0.00453181)">
    <g
       id="g3867"
       clip-path="url(#clipPath-505100628)">
      <!-- color: #d3d7dc -->
      <g
         id="g3869">
        <path
           id="path3871"
           stroke-miterlimit="4"
           transform="matrix(3.233046,0,0,3.269549,2.47496,2.248699)"
           d="M 9.803,3.153 C 9.268,2.755 5.915,6.355 5.763,6.283 5.513,6.136 6.175,3.602 5.908,3.479 5.403,3.234 3.076,7.921 2.467,9.602 l 0.484,0.423 c 0.822,-2.03 5.07,0.399 5.28,0.135 C 8.355,9.952 5.874,8.393 5.984,8.166 6.159,7.811 10.303,9.446 10.451,9.197 10.567,8.995 8.554,7.486 8.577,7.277 8.675,7.044 11.525,5.952 11.461,5.669 11.108,4.81 6.594,7.079 6.385,6.82 6.264,6.595 10.161,3.447 9.799,3.153 m 0.004,0"
           inkscape:connector-curvature="0"
           style="fill:#209cff;fill-opacity:1;fill-rule:nonzero;stroke:#283d70;stroke-width:0.28200001;stroke-linecap:butt;stroke-linejoin:miter;stroke-miterlimit:4;stroke-opacity:1" />
        <path
           id="path3873"
           stroke-miterlimit="4"
           transform="matrix(0.912437,0,0,0.922739,2.47496,2.248699)"
           d="m 19.438,24.813 c -6.687,3.179 -9.877,9.906 -9.877,9.906 1.995,-3.264 3.677,-6.511 9.877,-9.906 m 0,0"
           inkscape:connector-curvature="0"
           style="fill:#209cff;fill-opacity:1;fill-rule:nonzero;stroke:#283d70;stroke-width:1;stroke-linecap:butt;stroke-linejoin:miter;stroke-miterlimit:4;stroke-opacity:1" />
      </g>
    </g>
  </g>
</svg>
